X: 31
T:Morning Dew, The
M:4/4
L:1/8
R:reel
K:Edor
|:BAGF EFGA|B2EB ADFA|[1BAGF EFGA|BcdB ADFA:|[2BAGF EFGA|BcdB  ADFD|
|:E3B BAFD|EBEB ADFD|E3B BAFA|BcdB ADFA:|
|:B2eB fBeB|B2eB ADFA|[1B2eB fBeB|dcdB ADFA:|[2 (3Bcd eg fdec|dcdB ADFA||

